svg/misc/sunrise.svg

<svg width="512" height="512" viewBox="0 0 512 512" version="1.1" xmlns="http://www.w3.org/2000/svg"><path fill="currentColor" d="M480,384c17.703,0.03 32,14.346 32,32c0,17.654 -14.297,31.97 -32,32l-448,0c-17.673,0 -32,-14.327 -32,-32c0,-17.654 14.297,-31.97 32,-32l448,0Zm0,-48l-50.902,0c1.906,-10.377 2.902,-21.072 2.902,-32c0,-10.928 -0.996,-21.623 -2.902,-32l50.902,0c17.673,0 32,14.327 32,32c0,17.654 -14.297,31.97 -32,32Zm-397.098,0l-50.902,0c-17.673,0 -32,-14.327 -32,-32c0,-17.673 14.327,-32 32,-32l50.902,0c-1.906,10.377 -2.902,21.072 -2.902,32c0,10.907 0.992,21.583 2.902,32Zm45.098,-32c0,11.05 1.4,21.772 4.033,32l247.934,0c2.633,-10.228 4.033,-20.95 4.033,-32c0,-70.692 -57.308,-128 -128,-128c-70.692,0 -128,57.308 -128,128Zm-13.421,-175.363l35.096,35.097c-17.112,12.992 -31.774,29.043 -43.171,47.339l-37.18,-37.181c-12.497,-12.497 -12.497,-32.758 0,-45.255c12.496,-12.496 32.758,-12.496 45.255,0Zm316.783,33.942l-35.096,35.096c-12.992,-17.112 -29.043,-31.774 -47.339,-43.171l37.181,-37.18c12.496,-12.497 32.758,-12.497 45.254,0c12.497,12.497 12.497,32.758 0,45.255Zm-143.362,-82.579c0,-17.673 -14.327,-32 -32,-32c-17.673,0 -32,14.327 -32,32l0,50.902c10.377,-1.906 21.072,-2.902 32,-2.902c10.928,0 21.623,0.996 32,2.902l0,-50.902Z"></path></svg>

<svg width="512" height="512" viewBox="0 0 512 512" fill="none" xmlns="http://www.w3.org/2000/svg">
<g clip-path="url(#clip0)">
<path d="M288 80C288 62.3269 273.673 48 256 48C238.327 48 224 62.3269 224 80V130.902C234.377 128.996 245.072 128 256 128C266.928 128 277.623 128.996 288 130.902V80Z" fill="black"/>
<path d="M114.579 128.637L149.675 163.734C132.563 176.726 117.901 192.777 106.504 211.073L69.3238 173.892C56.827 161.395 56.827 141.134 69.3238 128.637C81.8205 116.141 102.082 116.141 114.579 128.637Z" fill="black"/>
<path d="M32 272H82.902C80.9959 282.377 80 293.072 80 304C80 314.928 80.9959 325.623 82.902 336H32C14.3269 336 0 321.673 0 304C0 286.327 14.3269 272 32 272Z" fill="black"/>
<path d="M128 304C128 315.05 129.4 325.772 132.033 336H379.967C382.6 325.772 384 315.05 384 304C384 233.308 326.692 176 256 176C185.308 176 128 233.308 128 304Z" fill="black"/>
<path d="M480 336H429.098C431.004 325.623 432 314.928 432 304C432 293.072 431.004 282.377 429.098 272H480C497.673 272 512 286.327 512 304C512 321.673 497.673 336 480 336Z" fill="black"/>
<path d="M288 528V512H224V528C224 545.673 238.327 560 256 560C273.673 560 288 545.673 288 528Z" fill="black"/>
<path d="M431.362 162.579L396.266 197.675C383.274 180.563 367.223 165.901 348.927 154.504L386.108 117.324C398.604 104.827 418.866 104.827 431.362 117.324C443.859 129.821 443.859 150.082 431.362 162.579Z" fill="black"/>
<path d="M32 384C14.3269 384 0 398.327 0 416C0 433.673 14.3269 448 32 448H480C497.673 448 512 433.673 512 416C512 398.327 497.673 384 480 384H32Z" fill="black"/>
</g>
<defs>
<clipPath id="clip0">
<rect width="512" height="512" fill="white"/>
</clipPath>
</defs>
</svg>
